!!!!SEGMENT: pl-sa--269-a-vii-29--002_myslivecek-josef--trio-allegro.krn
!!!cenid: 17xx:633
!!!COM: Mysliveček, Josef
!!!COM-rismid: pe30002301
!!!CDT: 1737/03/09-1781/02/04
!!!CNT: Czech
!!!OPR: Trio
!!!OTL: Allegro
!!!OMV: 002
!!!PDT:
!!!AGN: Secular
!!!SMS-siglum: PL-SA
!!!SMS-shelfmark: 269/A VII 29
!!!SMS-shelfwork: 001-002 M
!!!SMS-variant:
!!!SMS-altvar:
!!!NIFC-rismid: 1001077276
!!!URL-scan: http://bc.bdsandomierz.pl/dlibra/publication/1752/edition/1720/content
!!!ONB-nifc: UWAGA: części Tria: Larghetto, Allegro (C), Allegro (3/8). Uwaga na nazwy cz. 002 i 003.
**kern	**dynam	**kern	**dynam	**kern
*>[A,A,B,B]	*	*>[A,A,B,B]	*	*>[A,A,B,B]
*part3	*part3	*part2	*part2	*part1
*staff3	*	*staff2	*	*staff1
*I"Violonczello.	*	*I"Flauto. Secundo.	*	*I"Flauto Primo.
*I'vlc	*	*I'fl 2	*	*I'fl 1
*group2	*	*group1	*	*group1
*clefF4	*	*clefG2	*	*clefG2
*k[f#]	*	*k[f#]	*	*k[f#]
*G:	*	*G:	*	*G:
*M4/4	*	*M4/4	*	*M4/4
*met(c)	*	*met(c)	*	*met(c)
*>A	*	*>A	*	*>A
*2\right	*	*2\right	*	*
!LO:TX:a:B:t=allo.	!	!LO:TX:a:B:t=Allo	!	!LO:TX:a:B:t=allo.
!LO:TX:a:t=P:problem: metrum z kropką w środku	!	!LO:TX:a:t=P:problem:Partia błędnie nazwana w źródle również Violino Secundo.	!	!LO:TX:a:t=P:problem: metrum z kropką w środku
!LO:TX:a:t=P:problem:8\ chorągiewka skierowana w lewo:global	!	!LO:TX:a:t=P:problem:8\ chorągiewka skierowana w lewo:global	!	!LO:TX:a:t=P:problem:8\ chorągiewka skierowana w lewo:global
!	!	!LO:TX:a:t=P:problem: metrum z kropką w środku	!	!
8r	.	8r	.	8dd\
=1	=1	=1	=1	=1
!	!	!	!LO:DY:a:t=f.	!
8G\L	.	4b\	f	4gg\
8D\	.	.	.	.
8G\	.	(16dd\LL	.	(16bb\LL
.	.	16cc\	.	16aa\
8D\J	.	16b\	.	16gg\
.	.	16a\JJ)	.	16ff#\JJ)
4G\	.	4b\	.	4gg\
4r	.	8r	.	8r
!	!	!	!LO:DY:a:t=p.	!
.	.	8dd\	p	8gg\
=2	=2	=2	=2	=2
!LO:TX:a:t=1.	!	!	!	!
.	.	8qqdd/	.	8qqff#/
1r	.	4cc\	.	4ee\
.	.	8.b\L	.	8.dd\L
.	.	16ee\Jk	.	16gg\Jk
.	.	8qqdd/	.	8qqff#/
.	.	4cc\	.	4ee\
.	.	8b\L	.	8.dd\L
.	.	8a\J	.	.
.	.	.	.	16dd#X\Jk
=3	=3	=3	=3	=3
!	!	!	!LO:DY:a:t=for.	!
8E\L	.	4g/	f	4ee\
8BB\	.	.	.	.
8E\	.	(16b/LL	.	(16gg\LL
.	.	16a/	.	16ff#\
8BB\J	.	16g/	.	16ee\
.	.	16f#/JJ)	.	16dd#X\JJ)
4E\	.	4g/	.	4ee\
4r	.	8r	.	8r
!	!	!	!LO:DY:a:t=p.	!
.	.	8cc\	p	8ee\
=4	=4	=4	=4	=4
!LO:TX:a:t=1.	!	!	!	!
.	.	.	.	8qqdd/
1r	.	4a/	.	4cc\
.	.	8.g/L	.	8.b\L
.	.	16cc/Jk	.	16ee\Jk
.	.	.	.	8qqdd/
.	.	4a/	.	4cc\
.	.	8.g/L	.	8.b\L
.	.	16b/Jk	.	16dd\Jk
=5	=5	=5	=5	=5
!	!	!	!LO:DY:a:t=for	!
4B\	.	8dd\	f	4ee\ [4gg
.	.	4dd\	.	.
4G\	.	.	.	16gg\LL]
.	.	.	.	(16aa\
.	.	4dd\	.	16bb\
.	.	.	.	16gg\JJ)
4F#\	.	.	.	(4aa\
.	.	4dd\	.	.
4D\	.	.	.	16aa\LL
.	.	.	.	16bb\
.	.	8dd\	.	16ccc\)
.	.	.	.	16aa\JJ
!	!	!LO:LB:g=original	!	!LO:LB:g=original
=6	=6	=6	=6	=6
8G\L	.	4dd\	.	4bb\
8D\	.	.	.	.
8BB\	.	8r	.	8r
8GG\J	.	(8bb`\	.	8ddd\
4D/	.	(8bb\L)	.	(8ddd\L
.	.	8aa\)	.	8ccc\)
8r	.	(8aa\	.	(8ccc\
8D/	.	8ff#\J)	.	8aa\J)
=7	=7	=7	=7	=7
!LO:TX:a:t=P:problem:takty 6-7 zapisane repetycją	!	!	!	!
8G\L	.	4gg\	.	4bb\
8D\	.	.	.	.
8BB\	.	8r	.	8r
8GG\J	.	8bb`\	.	8ddd\
4D/	.	(8bb\L	.	(8ddd\L
.	.	8aa\)	.	8ccc\)
8r	.	(8aa\	.	(8ccc\
8D/	.	8ff#\J)	.	8aa\J)
=8	=8	=8	=8	=8
8G/L	.	4gg\	.	4bb\
8D/	.	.	.	.
8BB/	.	8r	.	8r
8GG/J	.	8dd\	.	8bb\
2D/	.	8dd\L	.	8bb\L
.	.	8cc\	.	8aa\
.	.	8b\	.	8aa\
.	.	8a\J	.	8ff#\J
=9	=9	=9	=9	=9
8G\L	.	8b`\L	.	4gg\
8G\	.	(16b\L	.	.
.	.	16cc\JJ)	.	.
8G\	.	(16dd\LL	.	4r
.	.	16cc\	.	.
8G\J	.	16b\	.	.
.	.	16a\JJ)	.	.
*tremolo	*	*	*	*
8G\L	.	4g/	.	8r
8G\	.	.	.	(8bb`\L
8G\	.	4r	.	8ddd\
8G\J	.	.	.	8bb\J)
!LO:LB:g=original	!	!	!	!
=10	=10	=10	=10	=10
8F#\L	.	8dd`\L	.	4aa\
8F#\	.	(16ff#\L	.	.
.	.	16gg\JJ)	.	.
8F#\	.	(16aa\LL	.	4r
.	.	16gg\	.	.
8F#\J	.	16ff#\	.	.
.	.	16ee\JJ)	.	.
8F#\L	.	4dd\	.	8r
8F#\	.	.	.	8aa`\L
8F#\	.	4r	.	(8ddd\
8F#\J	.	.	.	8aa\J)
*Xtremolo	*	*	*	*
=11	=11	=11	=11	=11
8E\L	.	8ee\	.	8gg\
8E\	.	4ee\	.	4gg\
8D\	.	.	.	.
8D\J	.	4ee\	.	4gg\
8C#X/L	.	.	.	.
8C#/	.	4ee\	.	4gg\
8AA/	.	.	.	.
8AA/J	.	8ee\	.	8gg\
!	!	!LO:LB:g=original	!	!LO:PB:g=original
=12	=12	=12	=12	=12
4D/	.	(8.dd\L	.	(8.ff#\L
.	.	32ee\LL	.	32gg\LL
.	.	32ff#\JJJ)	.	32aa\JJJ)
4r	.	8ee`\L	.	8gg`\L
.	.	8dd`\J	.	8ff#`\J
.	.	8qqdd/	.	8qqff#/
8r	.	4.cc#X\	.	4.ee\
(16G\LL	.	.	.	.
16F#\JJ	.	.	.	.
16E\LL	.	.	.	.
16D\	.	.	.	.
16C#X\	.	8ee\	.	8gg\
16AA\JJ)	.	.	.	.
=13	=13	=13	=13	=13
4D/	.	(8.dd\L	.	(8.ff#\L
.	.	32ee\LL	.	32gg\LL
.	.	32ff#\JJJ)	.	32aa\JJJ)
4r	.	8ee`\L	.	8gg`\L
.	.	8dd`\J	.	8ff#`\J
.	.	8qqdd/	.	8qqff#/
8r	.	4.cc#X\	.	4.ee\
16G\LL	.	.	.	.
16F#\JJ	.	.	.	.
(16E\LL	.	.	.	.
16D\	.	.	.	.
16C#X\	.	8ee\	.	8gg\
16AA\JJ)	.	.	.	.
=14	=14	=14	=14	=14
4D/	.	(8.dd\L	.	(8.ff#\L
.	.	32ee\LL	.	32gg\LL
.	.	32ff#\JJJ)	.	32aa\JJJ)
4r	.	8ee`\L	.	8gg`\L
.	.	8dd`\J	.	8ff#`\J
.	.	.	.	8qqff#/
(16G\LL	.	2b\	.	4.ee\
16F#\)	.	.	.	.
(16G\	.	.	.	.
16F#\JJ)	.	.	.	.
8G\L	.	.	.	.
8G#X\J	.	.	.	8dd\
=15	=15	=15	=15	=15
8A\L	.	4a/	.	(16cc#X\LL
.	.	.	.	16aa\
8A\	.	.	.	16gg#X\
.	.	.	.	16aa\JJ)
8A\	.	4r	.	(16bb\LL
.	.	.	.	16aa\
8A\J	.	.	.	16gg#\
.	.	.	.	16aa\JJ)
8A\L	.	8r	.	8aa\
8A\	.	(16cc#X\LL	.	8r
.	.	16dd\JJ)	.	.
.	.	8qqff#/	.	.
8Gn\	.	8ee\L	.	4r
8G\J	.	(16dd\L	.	.
.	.	16cc#\JJ)	.	.
=16	=16	=16	=16	=16
*tremolo	*	*	*	*
8F#\L	.	8dd\	.	16r
.	.	.	.	(16aa\LL
8F#\	.	8r	.	16gg#X\
.	.	.	.	16aa\JJ)
8F#\	.	4r	.	(16bb\LL
.	.	.	.	16aa\
8F#\J	.	.	.	16gg#X\
.	.	.	.	16aa\JJ)
*Xtremolo	*	*	*	*
8F#\L	.	8r	.	8aa\
8F#\	.	(16dd\LL	.	8r
.	.	16ee\JJ)	.	.
.	.	8qqgg/	.	.
8D\	.	8ff#\L	.	4r
8D\J	.	16ee\L	.	.
.	.	16dd\JJ	.	.
!	!	!LO:PB:g=original	!	!LO:LB:g=original
=17	=17	=17	=17	=17
*tremolo	*	*	*	*
8C#X/L	.	8ee\	.	16r
.	.	.	.	(16aa\LL
8C#X/	.	8r	.	16gg#X\
.	.	.	.	16aa\JJ)
8C#X/	.	4r	.	(16bb\LL
.	.	.	.	16aa\
8C#X/J	.	.	.	16gg#\
.	.	.	.	16aa\JJ)
8C#/L	.	8r	.	8aa\
8C#/	.	16ee\LL	.	8r
.	.	16ff#\JJ	.	.
.	.	8qqaa/	.	.
8C#/	.	8gg\L	.	4r
8C#/J	.	16ff#\L	.	.
.	.	16ee\JJ	.	.
*Xtremolo	*	*	*	*
=18	=18	=18	=18	=18
4D/	.	8.dd\L	.	(8.ff#\L
.	.	16ee\K	.	16gg\Jk)
4r	.	8ff#\	.	8aa'\L
.	.	8ff#\J	.	8aa'\J
8r	.	8ff#\	.	8aa\
8AA/L	.	(4ee\	.	(4gg\
8C#X/	.	.	.	.
8AA/J	.	16dd\LL	.	16ff#\LL
.	.	16cc#X\JJ)	.	16ee\JJ)
=19	=19	=19	=19	=19
4D/	.	(16dd\LL	.	(16ff#\LL
.	.	16ee\)	.	16gg\)
.	.	16dd\	.	(16ff#\
.	.	16ee\JJ	.	16gg\JJ)
4r	.	8ff#'\L	.	8aa\L
.	.	8ff#'\J	.	8aa\J
8r	.	8ff#\	.	8aa\
8AA/L	.	4ee\	.	4gg\
8C#X/	.	.	.	.
8AA/J	.	(16dd\LL	.	16ff#\LL
.	.	16cc#X\JJ)	.	16ee\JJ
=20	=20	=20	=20	=20
8D/	.	2.dd\	.	(16ff#\LL
.	.	.	.	16dd\)
8r	.	.	.	16ff#`\
.	.	.	.	16dd`\JJ
8G\	.	.	.	(16bb\LL
.	.	.	.	16aa\)
8r	.	.	.	16bb`\
.	.	.	.	16gg`\JJ
8F#\	.	.	.	(16aa\LL
.	.	.	.	16gg\)
8r	.	.	.	16aa`\
.	.	.	.	16ff#`\JJ
8C#X/	.	4ee\	.	(16gg\LL
.	.	.	.	16ff#\)
8r	.	.	.	16gg`\
.	.	.	.	16ee`\JJ
=21	=21	=21	=21	=21
!LO:TX:a:t=P:problem:takty 20-21 zapisane repetycją	!	!	!	!
8D/	.	2.dd\	.	(16ff#\LL
.	.	.	.	16ee\)
8r	.	.	.	16ff#`\
.	.	.	.	16dd`\JJ
8G\	.	.	.	(16bb\LL
.	.	.	.	16aa\)
8r	.	.	.	16bb`\
.	.	.	.	16gg`\JJ
8F#\	.	.	.	(16aa\LL
.	.	.	.	16gg\)
8r	.	.	.	16aa`\
.	.	.	.	16ff#`\JJ
8C#X/	.	4ee\	.	(16gg\LL
.	.	.	.	16ff#\)
8r	.	.	.	16gg`\
.	.	.	.	16ee`\JJ
!	!	!LO:LB:g=original	!	!
=22	=22	=22	=22	=22
8D\L	.	4dd\	.	16ff#\LL
.	.	.	.	16dd\
8D\	.	.	.	16ff#\
.	.	.	.	16aa\JJ
8F#\	.	4a\	.	16ddd\LL
.	.	.	.	16aa\
8F#\J	.	.	.	16ff#\
.	.	.	.	16dd\JJ
8G\L	.	4b\	.	2eeT\
8G\	.	.	.	.
8A\	.	4cc#X\	.	.
8A\J	.	.	.	.
=23	=23	=23	=23	=23
8D\	.	4dd\	.	8dd\
!	!LO:DY:a:t=pia.	!	!	!
8D\L	p	.	.	8r
8D\	.	8r	.	8gg\
8D\J	.	8gg\	.	8r
!LO:LB:g=original	!	!	!	!
8D\L	.	8ff#`\L	.	8ff#`\L
8D\	.	(16gg\L	.	(16gg\L
.	.	16ff#\JJ)	.	16ff#\JJ)
8D\	.	8ee`\L	.	8ee`\L
8D\J	.	(16ff#\L	.	(16ff#\L
.	.	16ee\JJ)	.	16ee\JJ)
=24	=24	=24	=24	=24
*tremolo	*	*	*	*
2D\	.	4f#/	.	4dd\
.	.	8r	.	8r
.	.	8gg\	.	8bb\
2D\	.	8ff#`\L	.	8aa`\L
.	.	(16gg\L	.	(16bb\L
.	.	16ff#\JJ)	.	16gg\JJ)
.	.	8ee`\L	.	8gg`\L
.	.	(16ff#\L	.	(16aa\L
.	.	16ee\JJ)	.	16gg\JJ)
*Xtremolo	*	*	*	*
=25	=25	=25	=25	=25
4D\	.	8dd`\L	.	8ff#`\L
.	.	(16ff#\L	.	(16aa\L
.	.	16ee\JJ)	.	16gg\JJ)
4D\	.	8dd`\L	.	8ff#`\L
.	.	(16ff#\L	.	(16aa\L
.	.	16ee\JJ)	.	16gg\JJ)
4D\	.	4dd\	.	4ff#\
4r	.	4r	.	4r
!	!	!	!	!LO:LB:g=original
=26:|!|:	=26:|!|:	=26:|!|:	=26:|!|:	=26:|!|:
*>B	*	*>B	*	*>B
8r	.	8r	.	8a/
!	!	!LO:LB:g=original	!	!
=27	=27	=27	=27	=27
8d\L	.	4f#/	.	4dd\
8A\	.	.	.	.
8d\	.	(16a/LL	.	(16ff#\LL
.	.	16g/	.	16ee\
8A\J	.	16f#/	.	16dd\
.	.	16e/JJ)	.	16cc#X\JJ)
4d\	.	4f#/	.	4dd\
4r	.	8r	.	8r
.	.	8bb\	.	8ddd\
=28	=28	=28	=28	=28
!LO:TX:a:t=1.	!	!	!	!
.	.	8qqaa/	.	.
1r	.	4gg\	.	4bb\
.	.	8.ff#\L	.	8.aa\L
.	.	16bb\Jk	.	16ddd\Jk
.	.	8qqaa/	.	.
.	.	4gg\	.	4bb\
.	.	8.ff#\L	.	8.aa\L
.	.	16ee\Jk	.	16aa#X\Jk
=29	=29	=29	=29	=29
8B\L	.	4dd\	.	4bb\
8F#\	.	.	.	.
8B\	.	(16ff#\LL	.	(16ddd\LL
.	.	16ee\	.	16ccc\
8F#\J	.	16dd\	.	16bb\
.	.	16cc#X\JJ)	.	16aa#X\JJ)
4B\	.	4dd\	.	4bb\
!	!	!	!LO:DY:a:t=p.	!
4r	.	8r	p	8r
.	.	8gg\	.	8bb\
=30	=30	=30	=30	=30
!LO:TX:a:t=1.	!	!	!	!
.	.	8qqff#/	.	8qqaa/
1r	.	4ee\	.	4gg\
.	.	8.dd\L	.	8.ff#\L
.	.	16gg\Jk	.	16bb\Jk
.	.	8qqff#/	.	8qqaa/
.	.	4ee\	.	4gg\
.	.	8.dd\L	.	8.ff#\L
.	.	16a\Jk	.	16a\Jk
=31	=31	=31	=31	=31
!	!	!	!LO:DY:a:t=for.	!
4F#\	.	8a/	f	4dd\
.	.	4a/	.	.
4D\	.	.	.	(16dd\LL
.	.	.	.	16ee\
.	.	4a/	.	16ff#\
.	.	.	.	16dd\JJ)
4C#X/	.	.	.	4ee\
.	.	4a/	.	.
4AA/	.	.	.	(16ee\LL
.	.	.	.	16ff#\
.	.	8a/	.	16gg\
.	.	.	.	16ee\JJ)
!	!	!LO:LB:g=original	!	!LO:LB:g=original
=32	=32	=32	=32	=32
4D\	.	4a/	.	(8.ff#\L
.	.	.	.	32gg\LL
.	.	.	.	32aa\JJJ)
8G\L	.	8ee\L	.	8gg\L
8G#X\J	.	8dd\J	.	8ff#\J
!LO:PB:g=original	!	!	!	!
!LO:TX:a:t=P:problem: mixed beam	!	!	!	!
.	.	8qqdd/	.	8qqff#/
8A\L	.	2cc#X\	.	4ee\
8AA/	.	.	.	.
8A\	.	.	.	8r
8Gn\J	.	.	.	8ee\
=33	=33	=33	=33	=33
4F#\	.	(2ccn\	.	8aa`\L
.	.	.	.	(16aa\L
.	.	.	.	16bb\JJ)
4E\	.	.	.	(16cccn\LL
.	.	.	.	16bb\
.	.	.	.	16aa\
.	.	.	.	16gg\JJ)
4D#X\	.	8cc\L)	.	8ff#X`\L
.	.	8b\J	.	(16ff#\L
.	.	.	.	16gg\JJ)
4Cn/	.	4ee\	.	(16aa\LL
.	.	.	.	16gg\
.	.	.	.	16ff#\
.	.	.	.	16ee\JJ)
=34	=34	=34	=34	=34
!LO:TX:a:t=P:problem: mixed beam	!	!	!	!
8BB/L	.	8ff#\	.	(8.dd#X\L
8A\	.	4.b\	.	.
.	.	.	.	32ee\LL
.	.	.	.	32ff#\JJJ)
8G\	.	.	.	8ee\L
8E\J	.	.	.	16r
.	.	.	.	16gg`\Jk
8D#X\L	.	[<2b\	.	(8.ff#\L
8BB\	.	.	.	.
.	.	.	.	32gg\LL
.	.	.	.	32aa\JJJ)
8E\	.	.	.	8gg\L
8G\J	.	.	.	16r
.	.	.	.	16bb\Jk
=35	=35	=35	=35	=35
8B\L	.	2.b\_	.	(8.dd#X\L
8A\	.	.	.	.
.	.	.	.	32ee\LL
.	.	.	.	32ff#\JJJ)
8G\	.	.	.	8ee\L
8E\J	.	.	.	16r
.	.	.	.	16gg\Jk
8D#X/L	.	.	.	(8.ff#\L
8BB/J	.	.	.	.
.	.	.	.	32gg\LL
.	.	.	.	32aa\JJJ)
8E\	.	8b\L]	.	8gg\L
8r	.	16r	.	16r
.	.	16ee\Jk	.	16gg\Jk
=36	=36	=36	=36	=36
8BB/L	.	2dd\	.	8gg\
8BB/	.	.	.	4ffn\
8BB/	.	.	.	.
8BB/J	.	.	.	8ff\
!	!	!	!	!LO:LB:g=original
*tremolo	*	*	*	*
8BB/L	.	[2g/	.	16ddd\LL
.	.	.	.	16ccc\
8BB/	.	.	.	16bb\
.	.	.	.	16aa\JJ
8BB/	.	.	.	16gg\LL
.	.	.	.	16ffn\
8BB/J	.	.	.	16ee\
.	.	.	.	16dd\JJ
=37	=37	=37	=37	=37
8C/L	.	2g/]	.	(8dd#X\L
8C/	.	.	.	8ee\J)
8C/	.	.	.	4dd#\
8C/J	.	.	.	.
8C/L	.	8cc\L	.	(8ee\L
8C/	.	8dd\J	.	8ff#X\
8C/	.	[4ee\	.	8gg\
8C/J	.	.	.	8gg#X\J)
!	!	!LO:LB:g=original	!	!
=38	=38	=38	=38	=38
8C/L	.	1ee]	.	(16aa\LL
.	.	.	.	16gg#X\
8C/	.	.	.	16aa\
.	.	.	.	16bb\JJ)
8C/	.	.	.	4aa\
8C/J	.	.	.	.
8C#X/L	.	.	.	8aa\L
8C#X/	.	.	.	16bb\L
.	.	.	.	16aa\JJ
.	.	.	.	8qqaa/
8C#X/	.	.	.	8ggn\L
8C#X/J	.	.	.	16ff#\L
.	.	.	.	16gg\JJ
=39	=39	=39	=39	=39
8D/L	.	8dd\	.	(16ff#\LL
.	.	.	.	16dd\
8D/	.	8r	.	16cc#X\
.	.	.	.	16dd\JJ)
8D/	.	8.r	.	(16ff#\LL
.	.	.	.	16dd\
8D/J	.	.	.	16cc#\
.	.	8r	.	16dd\JJ)
*Xtremolo	*	*	*	*
8D/L	.	.	.	8dd\
.	.	16f#/LL	.	.
8D/	.	16g/JJ	.	8r
.	.	16r	.	.
.	.	8qqb/	.	.
8Cn/	.	8a/L	.	4r
8C/J	.	16g/L	.	.
.	.	16f#/JJ	.	.
!	!	!	!	!LO:LB:g=original
=40	=40	=40	=40	=40
*tremolo	*	*	*	*
8BB/L	.	8a/	.	16r
.	.	.	.	(16dd\LL
8BB/	.	8r	.	16cc#X\
.	.	.	.	16dd\JJ)
8BB/	.	8.r	.	(16ee\LL
.	.	.	.	16dd\
8BB/J	.	.	.	16cc#\
.	.	8r	.	16dd\JJ)
*Xtremolo	*	*	*	*
8BB/L	.	.	.	8dd\
.	.	16g/LL	.	.
8BB/	.	16a/JJ	.	8r
.	.	16r	.	.
.	.	8qqcc/	.	.
8GG/	.	8b/L	.	4r
8GG/J	.	16a/L	.	.
.	.	16g/JJ	.	.
=41	=41	=41	=41	=41
*tremolo	*	*	*	*
8FF#/L	.	8a/	.	16r
.	.	.	.	(16dd\LL
8FF#/	.	8r	.	16cc#X\
.	.	.	.	16dd\JJ)
8FF#/	.	8.r	.	(16ee\LL
.	.	.	.	16dd\
8FF#/J	.	.	.	16cc#\
.	.	8r	.	16dd\JJ)
8FF#/L	.	.	.	8dd\
.	.	16a/LL	.	.
8FF#/	.	16b/JJ	.	8r
.	.	16r	.	.
.	.	8qqdd/	.	.
8FF#/	.	8cc/L	.	4r
8FF#/J	.	16b/L	.	.
.	.	16a/JJ	.	.
*Xtremolo	*	*	*	*
!	!	!LO:LB:g=original	!	!
=42	=42	=42	=42	=42
4GG/	.	(8.g/L	.	(8.b\L
.	.	16a/K)	.	16cc\K)
4r	.	8b`/	.	8dd`\
.	.	8b`/J	.	8dd`\J
8r	.	(8b/	.	8dd\
8D\L	.	4a/	.	4cc\
8F#\	.	.	.	.
8D\J	.	16g/LL	.	(16b\LL
.	.	16f#/JJ)	.	16a\JJ)
=43	=43	=43	=43	=43
4G\	.	(16g/LL	.	(16b\LL
.	.	16a/)	.	16cc\)
.	.	(16g/	.	(16b\
.	.	16a/JJ)	.	16cc\JJ)
4r	.	8b/L	.	8dd`\L
.	.	8b/J	.	8dd`\J
8r	.	8b/	.	8dd\
8D\L	.	4a/	.	4cc\
8F#\	.	.	.	.
8D\J	.	(16g/LL	.	(16b\LL
.	.	16f#/JJ)	.	16a\JJ)
!	!	!LO:LB:g=original	!	!LO:LB:g=original
=44	=44	=44	=44	=44
8G\	.	2.g/	.	(16b/LL
.	.	.	.	16a/)
8r	.	.	.	16b`/
.	.	.	.	16g`/JJ
8c\	.	.	.	(16ee\LL
.	.	.	.	16dd\)
8r	.	.	.	16ee`\
.	.	.	.	16cc`\JJ
8B\	.	.	.	(16dd\LL
.	.	.	.	16cc\)
8r	.	.	.	16dd`\
.	.	.	.	16b`\JJ
8F#\	.	4a/	.	(16cc\LL
.	.	.	.	16b\)
8r	.	.	.	16cc`\
.	.	.	.	16a`\JJ
=45	=45	=45	=45	=45
!LO:TX:a:t=P:problem:takty 44-45 zapisane repetycją	!	!	!	!LO:TX:a:t=P:problem:takty 44-45 zapisane repetycją
8G\	.	2.g/	.	(16b/LL
.	.	.	.	16a/)
8r	.	.	.	16b`/
.	.	.	.	16g`/JJ
8c\	.	.	.	(16ee\LL
.	.	.	.	16dd\)
8r	.	.	.	16ee`\
.	.	.	.	16cc`\JJ
8B\	.	.	.	(16dd\LL
.	.	.	.	16cc\)
8r	.	.	.	16dd`\
.	.	.	.	16b`\JJ
8F#\	.	4a/	.	(16cc\LL
.	.	.	.	16b\)
8r	.	.	.	16cc`\
.	.	.	.	16a`\JJ
=46	=46	=46	=46	=46
!LO:TX:a:t=P:problem: mixed beam	!	!	!	!
8G\L	.	4g/	.	8b\
8G\	.	.	.	4ddd\
8BB/	.	2gg\	.	.
8BB/J	.	.	.	8bb\
8C/L	.	.	.	2aaT\
8C/	.	.	.	.
8D/	.	4ff#\	.	.
8D/J	.	.	.	.
=47	=47	=47	=47	=47
8G\	.	4gg\	.	4gg\
!	!LO:DY:a:t=p.	!	!	!
8G\L	p	.	.	.
8G\	.	8r	.	8r
8G\J	.	8ee\	.	8ccc\
*tremolo	*	*	*	*
8G\L	.	8dd`\L	.	8bb`\L
8G\	.	(16ee\L	.	(16ccc\L
.	.	16dd\JJ)	.	16bb\JJ)
8G\	.	8cc`\L	.	8aa`\L
8G\J	.	(16dd\L	.	(16bb\L
.	.	16cc\JJ)	.	16aa\JJ)
=48	=48	=48	=48	=48
8G\L	.	4b\	.	4gg\
8G\	.	.	.	.
8G\	.	8r	.	8r
8G\J	.	8cc`\	.	8ee\
8G\L	.	8b`\L	.	8dd`\L
8G\	.	(16cc\L	.	(16ee\L
.	.	16b\JJ)	.	16dd\JJ)
8G\	.	8a`\L	.	8cc`\L
8G\J	.	(16b\L	.	(16dd\L
.	.	16a\JJ)	.	16cc\JJ)
*Xtremolo	*	*	*	*
=49	=49	=49	=49	=49
!	!LO:DY:a:t=for.	!	!LO:DY:a:t=for.	!
4G\	f	8g`/L	f	8b`\L
.	.	(16b/L	.	(16dd\L
.	.	16a/JJ)	.	16cc\JJ)
4G\	.	8g`/L	.	8b`\L
.	.	(16b/L	.	(16dd\L
.	.	16a/JJ)	.	16cc\JJ)
4G\	.	4g/	.	4b/
4r	.	4r	.	4r
=:|!;;	=:|!	=:|!;;	=:|!	=:|!;;
*-	*-	*-	*-	*-
!!!system-decoration: [(g1)][(g2)]
!!!RDF**kern: >= above
!!!RDF**kern: <= below
!!!ENC:Anna Matuszewska
!!!END:2020-10-27
!!!ENC: Tomasz Grochalski
!!!END: 2020-06-04
